src/assets/img/icons/icon-History-default.svg

<svg xmlns="http://www.w3.org/2000/svg" width="24" height="24">
    <path fill="none" d="M0 0h24v24H0z"/>
    <path d="M12 3.002a9 9 0 1 1-8.963 8.183 1 1 0 1 1 1.992.18A7 7 0 1 0 7.1 7.002h1.4a1.002 1.002 0 0 1 .114 2H4.5a1 1 0 0 1-1-.88v-4.12a1 1 0 0 1 1.99-.113l.01.113V5.78A8.983 8.983 0 0 1 12 3.002Zm-.75 4a.75.75 0 0 1 .743.648l.007.1v4.252h2.25a.75.75 0 0 1 .1 1.493l-.1.007h-3a.75.75 0 0 1-.743-.648l-.007-.1v-5a.75.75 0 0 1 .75-.752Z" fill="#767676"/>
</svg>

<svg id="icon-History-default" xmlns="http://www.w3.org/2000/svg" width="24" height="24" viewBox="0 0 24 24">
  <rect id="icon-frame" width="24" height="24" fill="none"/>
  <path id="History" d="M12,3a9,9,0,1,1-8.963,8.183,1,1,0,1,1,1.992.18A7,7,0,1,0,7.1,7H8.5A1,1,0,0,1,8.614,9L8.5,9h-4A1,1,0,0,1,3.5,8.12L3.5,8V4A1,1,0,0,1,5.49,3.887L5.5,4V5.778A8.983,8.983,0,0,1,12,3Zm-.75,4a.75.75,0,0,1,.743.648l.007.1V12h2.25a.75.75,0,0,1,.1,1.493l-.1.007h-3a.75.75,0,0,1-.743-.648l-.007-.1v-5A.75.75,0,0,1,11.25,7Z" transform="translate(0 0.002)" fill="#767676"/>
</svg>
